UI/src/icons/svg/setting.svg

<?xml version="1.0" standalone="no"?><!DOCTYPE svg PUBLIC "-//W3C//DTD SVG 1.1//EN" "http://www.w3.org/Graphics/SVG/1.1/DTD/svg11.dtd"><svg t="1634046715200" class="icon" viewBox="0 0 1024 1024" version="1.1" xmlns="http://www.w3.org/2000/svg" p-id="4321" xmlns:xlink="http://www.w3.org/1999/xlink" width="256" height="256"><defs><style type="text/css"></style></defs><path d="M405.808 1024a521.424 521.424 0 0 1-177.408-72.416 136.528 136.528 0 0 0-154.48-152.848A519.232 519.232 0 0 1 0 623.088l2.816-2.112a136.528 136.528 0 0 0 0-217.952L0 400.912a519.232 519.232 0 0 1 73.92-175.648 136.528 136.528 0 0 0 154.48-152.848A521.424 521.424 0 0 1 405.808 0a136.544 136.544 0 0 0 212.384 0 521.424 521.424 0 0 1 177.408 72.416 136.528 136.528 0 0 0 154.48 152.848c34.704 52.688 60.112 112 73.92 175.648l-2.816 2.112a136.528 136.528 0 0 0 0 217.952l2.816 2.112a519.232 519.232 0 0 1-73.92 175.648 136.528 136.528 0 0 0-154.48 152.848A521.424 521.424 0 0 1 618.192 1024a136.544 136.544 0 0 0-212.384 0zM512 765.44c144.656 0 261.92-117.024 261.92-261.376 0-144.352-117.264-261.376-261.92-261.376s-261.92 117.024-261.92 261.376c0 144.352 117.264 261.376 261.92 261.376z" p-id="4322"></path></svg>

<svg xmlns="http://www.w3.org/2000/svg" width="256" height="256" class="icon" viewBox="0 0 1024 1024"><path d="M405.808 1024A521.4 521.4 0 0 1 228.4 951.584 136.528 136.528 0 0 0 73.92 798.736 519.2 519.2 0 0 1 0 623.088l2.816-2.112a136.528 136.528 0 0 0 0-217.952L0 400.912a519.2 519.2 0 0 1 73.92-175.648A136.528 136.528 0 0 0 228.4 72.416 521.4 521.4 0 0 1 405.808 0a136.544 136.544 0 0 0 212.384 0A521.4 521.4 0 0 1 795.6 72.416a136.528 136.528 0 0 0 154.48 152.848c34.704 52.688 60.112 112 73.92 175.648l-2.816 2.112a136.528 136.528 0 0 0 0 217.952l2.816 2.112a519.2 519.2 0 0 1-73.92 175.648A136.528 136.528 0 0 0 795.6 951.584 521.4 521.4 0 0 1 618.192 1024a136.544 136.544 0 0 0-212.384 0M512 765.44c144.656 0 261.92-117.024 261.92-261.376S656.656 242.688 512 242.688 250.08 359.712 250.08 504.064 367.344 765.44 512 765.44"/></svg>
